assets/images/logo-creativeai-light.svg

<svg height="145" viewBox="0 0 500 145" width="500" xmlns="http://www.w3.org/2000/svg"><path d="m437.388 92.9504v-41.4213h10.168v41.3613zm10.318-46.1674h-10.513v-9.0112h10.513zm-35.744 29.8121v-1.7422l-12.166 1.0664c-1.621.1502-2.282 1.0513-2.282 2.6733v3.5895c0 2.4331 2.538 3.7096 6.248 3.7096 4.731-.1872 8.415-4.1742 8.229-8.9061v-.3905zm0-12.015c.3-3.0655-1.899-5.8112-4.957-6.1875-.498-.0753-1.003-.0753-1.501 0-4.056 0-6.984 2.0274-6.984 5.8271h-10.137c.316-9.0112 7.644-13.697 17.527-13.697 9.881 0 16.113 5.0462 16.113 14.2228v20.2751h6.984v7.8698h-16.085v-6.398h-.33c-2.263 4.7751-7.206 7.6901-12.48 7.3592-6.883.3578-12.755-4.9234-13.126-11.8047v-.9462c0-6.6532 4.85-12.1651 13.516-12.8859l11.444-1.0063zm-35.865 28.3703h-11.7v-11.8497h11.7zm-48.406-25.2914h16.237v-1.5769c0-4.479-3.632-8.1101-8.11-8.1101-4.48 0-8.11 3.6311-8.11 8.1101zm8.11-17.0312c11.19 0 18.49 8.4105 18.49 19.7646v5.1213h-26.6v2.7486c-.039 2.0314.73 3.9956 2.138 5.4604 1.407 1.4647 3.341 2.3098 5.373 2.3491h.675c4.026.3562 7.58-2.6135 7.944-6.6382h10.139c-1.307 9.1613-8.2 14.4931-18.173 14.4931-11.76 0-18.727-8.726-18.727-21.8372 0-13.1113 7.509-21.5216 18.727-21.5216zm-42.938 30.9686 9.357-30.0374h10.693l-14.597 41.3013h-11.13l-14.507-41.3614h10.859l9.011 30.0374zm-39.137 11.354v-41.4213h10.137v41.3613zm10.287-46.1674h-10.513v-9.0112h10.513zm-30.338 38.1174h10.303v7.8548h-20.44v-33.4917h-8.321v-7.7344h8.2v-13.7872h10.137v13.7872h10.289v7.7344h-10.289zm-37.922-8.4555v-1.592l-12.165 1.0664c-1.622.1502-2.283 1.0513-2.283 2.6733v3.5895c0 2.4331 2.493 3.7096 6.007 3.7096 2.271-.0435 4.432-.9872 6.006-2.6238 1.574-1.6365 2.435-3.8314 2.39-6.102v-.5708zm0-12.0149c.308-3.0981-1.924-5.8712-5.017-6.2327-.498-.0601-1.001-.0601-1.501 0-4.055 0-6.984 2.0274-6.984 5.8422h-10.137c.3-9.0112 7.599-13.6969 17.527-13.6969s16.189 5.1213 16.189 14.3727v20.2753h6.953v7.8697h-16.039v-6.3679h-.314c-2.269 4.7639-7.201 7.6753-12.466 7.3592-6.883.3753-12.769-4.8929-13.157-11.7747v-.9762c0-6.6532 4.866-12.1651 13.516-12.8859l11.446-1.0063zm-60.165 3.1539h16.251v-1.5018c-.262-4.2958-3.822-7.6458-8.125-7.6458-4.304 0-7.864 3.35-8.126 7.6458zm8.11-17.0312c11.189 0 18.488 8.4256 18.488 19.7796v5.1215h-26.598v2.7334c-.059 4.2233 3.287 7.7099 7.51 7.8245h.616c1.938.1751 3.866-.4278 5.359-1.6758 1.493-1.2482 2.429-3.0388 2.6-4.9774h10.138c-1.322 9.1765-8.215 14.5081-18.188 14.5081-11.759 0-18.713-8.741-18.713-21.7771 0-13.0363 7.509-21.4617 18.713-21.4617zm-47.5787.9913h23.2187v7.9298h-12.976v33.4166h-10.1375zm-27.0336-.9761c8.6058 0 16.5206 4.5056 17.2865 14.9133h-10.1076c.1182-3.7825-2.8411-6.95-6.6231-7.0886-.3397-.0302-.6816-.0302-1.0213 0-4.0599-.1608-7.4818 2.9989-7.6446 7.0587v1.0512 11.4442c-.1837 1.96.4188 3.9125 1.6751 5.428 1.2563 1.5154 3.0634 2.4695 5.0233 2.6522h1.0063c4.5056 0 7.1489-1.8774 7.7646-7.3892h10.1677c-1.0063 10.3778-8.3204 15.304-17.4366 15.304-12.3153 0-18.7134-8.7258-18.7134-21.3867 0-13.727 7.2991-22.0023 18.6533-22.0023zm429.9543-50.5679h-499.04v144.404h499.04z" fill="#fff"/></svg>

<?xml version="1.0" encoding="UTF-8"?>
<svg width="500px" height="145px" viewBox="0 0 500 145" version="1.1" xmlns="http://www.w3.org/2000/svg" xmlns:xlink="http://www.w3.org/1999/xlink">
    <!-- Generator: Sketch 52.6 (67491) - http://www.bohemiancoding.com/sketch -->
    <title>logo_creativeai</title>
    <desc>Created with Sketch.</desc>
    <g id="Page-1" stroke="none" stroke-width="1" fill="none" fill-rule="evenodd">
        <g id="logo_creativeai" fill="#FFFFFF" fill-rule="nonzero">
            <path d="M437.388,92.9504 L437.388,51.5291 L447.556,51.5291 L447.556,92.8904 L437.388,92.9504 Z M447.706,46.783 L437.193,46.783 L437.193,37.7718 L447.706,37.7718 L447.706,46.783 Z M411.962,76.5951 L411.962,74.8529 L399.796,75.9193 C398.175,76.0695 397.514,76.9706 397.514,78.5926 L397.514,82.1821 C397.514,84.6152 400.052,85.8917 403.762,85.8917 C408.493,85.7045 412.177,81.7175 411.991,76.9856 L411.991,76.5951 L411.962,76.5951 Z M411.962,64.5801 C412.262,61.5146 410.063,58.7689 407.005,58.3926 C406.507,58.3173 406.002,58.3173 405.504,58.3926 C401.448,58.3926 398.52,60.42 398.52,64.2197 L388.383,64.2197 C388.699,55.2085 396.027,50.5227 405.91,50.5227 C415.791,50.5227 422.023,55.5689 422.023,64.7455 L422.023,85.0206 L429.007,85.0206 L429.007,92.8904 L412.922,92.8904 L412.922,86.4924 L412.592,86.4924 C410.329,91.2675 405.386,94.1825 400.112,93.8516 C393.229,94.2094 387.357,88.9282 386.986,82.0469 L386.986,81.1007 C386.986,74.4475 391.836,68.9356 400.502,68.2148 L411.946,67.2085 L411.962,64.5801 Z M376.097,92.9504 L364.397,92.9504 L364.397,81.1007 L376.097,81.1007 L376.097,92.9504 Z M327.691,67.659 L343.928,67.659 L343.928,66.0821 C343.928,61.6031 340.296,57.972 335.818,57.972 C331.338,57.972 327.708,61.6031 327.708,66.0821 L327.691,67.659 Z M335.801,50.6278 C346.991,50.6278 354.291,59.0383 354.291,70.3924 L354.291,75.5137 L327.691,75.5137 L327.691,78.2623 C327.652,80.2937 328.421,82.2579 329.829,83.7227 C331.236,85.1874 333.17,86.0325 335.202,86.0718 L335.877,86.0718 C339.903,86.428 343.457,83.4583 343.821,79.4336 L353.96,79.4336 C352.653,88.5949 345.76,93.9267 335.787,93.9267 C324.027,93.9267 317.06,85.2007 317.06,72.0895 C317.06,58.9782 324.569,50.5679 335.787,50.5679 L335.801,50.6278 Z M292.863,81.5964 L302.22,51.559 L312.913,51.559 L298.316,92.8603 L287.186,92.8603 L272.679,51.4989 L283.538,51.4989 L292.549,81.5363 L292.863,81.5964 Z M253.726,92.9504 L253.726,51.5291 L263.863,51.5291 L263.863,92.8904 L253.726,92.9504 Z M264.013,46.783 L253.5,46.783 L253.5,37.7718 L264.013,37.7718 L264.013,46.783 Z M233.675,84.9004 L243.978,84.9004 L243.978,92.7552 L223.538,92.7552 L223.538,59.2635 L215.217,59.2635 L215.217,51.5291 L223.417,51.5291 L223.417,37.7419 L233.554,37.7419 L233.554,51.5291 L243.843,51.5291 L243.843,59.2635 L233.554,59.2635 L233.675,84.9004 Z M195.753,76.4449 L195.753,74.8529 L183.588,75.9193 C181.966,76.0695 181.305,76.9706 181.305,78.5926 L181.305,82.1821 C181.305,84.6152 183.798,85.8917 187.312,85.8917 C189.583,85.8482 191.744,84.9045 193.318,83.2679 C194.892,81.6314 195.753,79.4365 195.708,77.1659 L195.708,76.5951 L195.753,76.4449 Z M195.753,64.43 C196.061,61.3319 193.829,58.5588 190.736,58.1973 C190.238,58.1372 189.735,58.1372 189.235,58.1973 C185.18,58.1973 182.251,60.2247 182.251,64.0395 L172.114,64.0395 C172.414,55.0283 179.713,50.3426 189.641,50.3426 C199.569,50.3426 205.83,55.4639 205.83,64.7153 L205.83,84.9906 L212.783,84.9906 L212.783,92.8603 L196.744,92.8603 L196.744,86.4924 L196.43,86.4924 C194.161,91.2563 189.229,94.1677 183.964,93.8516 C177.081,94.2269 171.195,88.9587 170.807,82.0769 L170.807,81.1007 C170.807,74.4475 175.673,68.9356 184.323,68.2148 L195.769,67.2085 L195.753,64.43 Z M135.588,67.5839 L151.839,67.5839 L151.839,66.0821 C151.577,61.7863 148.017,58.4363 143.714,58.4363 C139.41,58.4363 135.85,61.7863 135.588,66.0821 L135.588,67.5839 Z M143.698,50.5527 C154.887,50.5527 162.186,58.9783 162.186,70.3323 L162.186,75.4538 L135.588,75.4538 L135.588,78.1872 C135.529,82.4105 138.875,85.8971 143.098,86.0117 L143.714,86.0117 C145.652,86.1868 147.58,85.5839 149.073,84.3359 C150.566,83.0877 151.502,81.2971 151.673,79.3585 L161.811,79.3585 C160.489,88.535 153.596,93.8666 143.623,93.8666 C131.864,93.8666 124.91,85.1256 124.91,72.0895 C124.91,59.0532 132.419,50.6278 143.623,50.6278 L143.698,50.5527 Z M96.1193,51.544 L119.338,51.544 L119.338,59.4738 L106.362,59.4738 L106.362,92.8904 L96.2245,92.8904 L96.1193,51.544 Z M69.0857,50.5679 C77.6915,50.5679 85.6063,55.0735 86.3722,65.4812 L76.2646,65.4812 C76.3828,61.6987 73.4235,58.5312 69.6415,58.3926 C69.3018,58.3624 68.9599,58.3624 68.6202,58.3926 C64.5603,58.2318 61.1384,61.3915 60.9756,65.4513 C60.9756,65.7967 60.9756,66.1572 60.9756,66.5025 L60.9756,77.9467 C60.7919,79.9067 61.3944,81.8592 62.6507,83.3747 C63.907,84.8901 65.7141,85.8442 67.674,86.0269 L68.6803,86.0269 C73.1859,86.0269 75.8292,84.1495 76.4449,78.6377 L86.6126,78.6377 C85.6063,89.0155 78.2922,93.9417 69.176,93.9417 C56.8607,93.9417 50.4626,85.2159 50.4626,72.555 C50.4626,58.828 57.7617,50.5527 69.1159,50.5527 L69.0857,50.5679 Z M499.04,0 L0,0 L0,144.404 L499.04,144.404 L499.04,0 Z" id="Shape"></path>
        </g>
    </g>
</svg>
